X: 1
T: Sm\aa grodorna
T: Little frogs
O: Sweden
M: 2/4
L: 1/8
K: C
G | "C"E>E EG | E>E EG | AG FE | "G7"D2 zF \
  |    D>D DF | D>D DF | GF ED |  "C"C2 z :|
